public/assets/waves.svg

<svg width="100%" height="100%" id="svg" viewBox="0 0 1440 400" xmlns="http://www.w3.org/2000/svg" class="transition duration-300 ease-in-out delay-150"><defs><linearGradient id="gradient" x1="38%" y1="99%" x2="62%" y2="1%"><stop offset="5%" stop-color="#303956"></stop><stop offset="95%" stop-color="#24b4e9"></stop></linearGradient></defs><path d="M 0,400 C 0,400 0,133 0,133 C 170.53333333333336,152.33333333333334 341.0666666666667,171.66666666666669 483,167 C 624.9333333333333,162.33333333333331 738.2666666666667,133.66666666666669 893,124 C 1047.7333333333333,114.33333333333333 1243.8666666666668,123.66666666666666 1440,133 C 1440,133 1440,400 1440,400 Z" stroke="none" stroke-width="0" fill="url(#gradient)" fill-opacity="0.53" class="transition-all duration-300 ease-in-out delay-150 path-0"></path><defs><linearGradient id="gradient" x1="38%" y1="99%" x2="62%" y2="1%"><stop offset="5%" stop-color="#303956"></stop><stop offset="95%" stop-color="#24b4e9"></stop></linearGradient></defs><path d="M 0,400 C 0,400 0,266 0,266 C 116.40000000000003,247.06666666666666 232.80000000000007,228.13333333333335 410,228 C 587.1999999999999,227.86666666666665 825.2,246.53333333333336 1007,256 C 1188.8,265.46666666666664 1314.4,265.73333333333335 1440,266 C 1440,266 1440,400 1440,400 Z" stroke="none" stroke-width="0" fill="url(#gradient)" fill-opacity="1" class="transition-all duration-300 ease-in-out delay-150 path-1"></path></svg>

<svg viewBox="0 0 1440 400" xmlns="http://www.w3.org/2000/svg" class="transition duration-300 ease-in-out delay-150"><defs><linearGradient id="a" x1="38%" y1="99%" x2="62%" y2="1%"><stop offset="5%" stop-color="#303956"/><stop offset="95%" stop-color="#24b4e9"/></linearGradient></defs><path d="M0 400V133c170.533 19.333 341.067 38.667 483 34 141.933-4.667 255.267-33.333 410-43 154.733-9.667 350.867-.333 547 9v267Z" fill="url(#a)" fill-opacity=".53" class="transition-all duration-300 ease-in-out delay-150 path-0"/><path d="M0 400V266c116.4-18.933 232.8-37.867 410-38 177.2-.133 415.2 18.533 597 28 181.8 9.467 307.4 9.733 433 10v134Z" fill="url(#a)" class="transition-all duration-300 ease-in-out delay-150 path-1"/></svg>
